synths/sNFLX.svg

<svg width="42" height="42" viewBox="0 0 42 42" fill="none" xmlns="http://www.w3.org/2000/svg">
<g clip-path="url(#clip0_7277_57838)">
<mask id="mask0_7277_57838" style="mask-type:alpha" maskUnits="userSpaceOnUse" x="0" y="0" width="42" height="42">
<circle cx="21" cy="21" r="21" fill="url(#paint0_linear_7277_57838)"/>
</mask>
<g mask="url(#mask0_7277_57838)">
<circle cx="21" cy="21" r="21" fill="#34EDB3"/>
<circle cx="21" cy="21" r="18.2" fill="white"/>
</g>
<circle cx="21" cy="21" r="16.1" fill="#06061B"/>
<circle cx="21" cy="21" r="16.1" fill="black"/>
<path fill-rule="evenodd" clip-rule="evenodd" d="M22.6698 10.5138L22.6617 15.1547L22.6535 19.7956L22.2717 18.7183C22.2715 18.7179 22.2711 18.7165 22.2709 18.7162L21.7775 29.0481C22.2626 30.418 22.5225 31.1493 22.5255 31.1523C22.5293 31.1561 22.8057 31.1728 23.1398 31.1893C24.152 31.2396 25.4062 31.3472 26.3577 31.4654C26.578 31.4928 26.7676 31.5068 26.779 31.4966C26.7905 31.4864 26.7967 26.761 26.7929 20.9959L26.7859 10.5138H24.7279H22.6698V10.5138Z" fill="#B1060F" stroke="black" stroke-width="0.0820533"/>
<path fill-rule="evenodd" clip-rule="evenodd" d="M15.225 10.5V20.9927C15.225 26.7637 15.2307 31.4911 15.2376 31.498C15.2445 31.5049 15.6019 31.4712 16.0318 31.423C16.4617 31.3749 17.0559 31.315 17.3521 31.29C17.8065 31.2516 19.1632 31.1644 19.3203 31.1635C19.366 31.1632 19.3689 30.9274 19.3755 26.7192L19.3825 22.2752L19.7108 23.204C19.7615 23.3475 19.7774 23.3923 19.8269 23.5322L20.3201 13.2028C20.2156 12.9073 20.2704 13.0624 20.1506 12.7238C19.7476 11.5843 19.4056 10.6177 19.3906 10.576L19.3633 10.5H17.2942H15.225V10.5Z" fill="#B1060F" stroke="black" stroke-width="0.0820533"/>
<path fill-rule="evenodd" clip-rule="evenodd" d="M15.225 10.5V16.3899L19.3742 27.396C19.3746 27.1438 19.3751 27.0075 19.3755 26.7192L19.3825 22.2752L19.7108 23.204C21.538 28.3743 22.5197 31.1465 22.5255 31.1523C22.5293 31.1561 22.8057 31.1728 23.1398 31.1894C24.152 31.2396 25.4062 31.3472 26.3577 31.4654C26.578 31.4928 26.7676 31.5068 26.779 31.4966C26.7869 31.4896 26.792 29.1726 26.7934 25.9041L22.6637 14.0312L22.6617 15.1547L22.6535 19.7957L22.2717 18.7183C21.8986 17.6656 21.6495 16.9616 20.1506 12.7238C19.7476 11.5843 19.4056 10.6177 19.3906 10.576L19.3633 10.5H17.2942H15.225H15.225Z" fill="url(#paint1_radial_7277_57838)"/>
<path fill-rule="evenodd" clip-rule="evenodd" d="M15.2251 10.5L19.3825 22.2806V22.2752L19.7108 23.204C21.538 28.3743 22.5197 31.1465 22.5254 31.1523C22.5293 31.1561 22.8057 31.1728 23.1398 31.1894C24.1519 31.2396 25.4062 31.3472 26.3577 31.4654C26.5769 31.4927 26.7655 31.5066 26.7787 31.4967L22.6535 19.7935V19.7957L22.2716 18.7183C21.8986 17.6656 21.6495 16.9616 20.1506 12.7238C19.7476 11.5843 19.4056 10.6177 19.3906 10.576L19.3633 10.5H17.2942H15.2251V10.5Z" fill="#E50914"/>
<path fill-rule="evenodd" clip-rule="evenodd" d="M22.6698 10.5138L22.6617 15.1547L22.6535 19.7956L22.2717 18.7183C22.2715 18.7179 22.2711 18.7165 22.2709 18.7162L21.7775 29.0481C22.2626 30.418 22.5225 31.1493 22.5255 31.1523C22.5293 31.1561 22.8057 31.1728 23.1398 31.1893C24.152 31.2396 25.4062 31.3472 26.3577 31.4654C26.578 31.4928 26.7676 31.5068 26.779 31.4966C26.7905 31.4864 26.7967 26.761 26.7929 20.9959L26.7859 10.5138H24.7279H22.6698V10.5138Z" fill="#B1060F" stroke="black" stroke-width="0.0820533"/>
<path fill-rule="evenodd" clip-rule="evenodd" d="M15.225 10.5V20.9927C15.225 26.7637 15.2307 31.4911 15.2376 31.498C15.2445 31.5049 15.6019 31.4712 16.0318 31.423C16.4617 31.3749 17.0559 31.315 17.3521 31.29C17.8065 31.2516 19.1632 31.1644 19.3203 31.1635C19.366 31.1632 19.3689 30.9274 19.3755 26.7192L19.3825 22.2752L19.7108 23.204C19.7615 23.3475 19.7774 23.3923 19.8269 23.5322L20.3201 13.2028C20.2156 12.9073 20.2704 13.0624 20.1506 12.7238C19.7476 11.5843 19.4056 10.6177 19.3906 10.576L19.3633 10.5H17.2942H15.225V10.5Z" fill="#B1060F" stroke="black" stroke-width="0.0820533"/>
<path fill-rule="evenodd" clip-rule="evenodd" d="M15.225 10.5V16.3899L19.3742 27.396C19.3746 27.1438 19.3751 27.0075 19.3755 26.7192L19.3825 22.2752L19.7108 23.204C21.538 28.3743 22.5197 31.1465 22.5255 31.1523C22.5293 31.1561 22.8057 31.1728 23.1398 31.1894C24.152 31.2396 25.4062 31.3472 26.3577 31.4654C26.578 31.4928 26.7676 31.5068 26.779 31.4966C26.7869 31.4896 26.792 29.1726 26.7934 25.9041L22.6637 14.0312L22.6617 15.1547L22.6535 19.7957L22.2717 18.7183C21.8986 17.6656 21.6495 16.9616 20.1506 12.7238C19.7476 11.5843 19.4056 10.6177 19.3906 10.576L19.3633 10.5H17.2942H15.225H15.225Z" fill="url(#paint2_radial_7277_57838)"/>
<path fill-rule="evenodd" clip-rule="evenodd" d="M15.2251 10.5L19.3825 22.2806V22.2752L19.7108 23.204C21.538 28.3743 22.5197 31.1465 22.5254 31.1523C22.5293 31.1561 22.8057 31.1728 23.1398 31.1894C24.1519 31.2396 25.4062 31.3472 26.3577 31.4654C26.5769 31.4927 26.7655 31.5066 26.7787 31.4967L22.6535 19.7935V19.7957L22.2716 18.7183C21.8986 17.6656 21.6495 16.9616 20.1506 12.7238C19.7476 11.5843 19.4056 10.6177 19.3906 10.576L19.3633 10.5H17.2942H15.2251V10.5Z" fill="#E50914"/>
</g>
<defs>
<linearGradient id="paint0_linear_7277_57838" x1="21" y1="0" x2="21" y2="61.4091" gradientUnits="userSpaceOnUse">
<stop stop-color="#08021E"/>
<stop offset="1" stop-color="#1F0777"/>
</linearGradient>
<radialGradient id="paint1_radial_7277_57838" cx="0" cy="0" r="1" gradientUnits="userSpaceOnUse" gradientTransform="translate(20.8171 20.8779) rotate(-19.0982) scale(2.62202 96.0425)">
<stop/>
<stop offset="1" stop-opacity="0"/>
</radialGradient>
<radialGradient id="paint2_radial_7277_57838" cx="0" cy="0" r="1" gradientUnits="userSpaceOnUse" gradientTransform="translate(20.8171 20.8779) rotate(-19.0982) scale(2.62202 96.0425)">
<stop/>
<stop offset="1" stop-opacity="0"/>
</radialGradient>
<clipPath id="clip0_7277_57838">
<rect width="42" height="42" fill="white"/>
</clipPath>
</defs>
</svg>

<svg xmlns="http://www.w3.org/2000/svg" width="42" height="42" fill="none"><g clip-path="url(#a)"><mask id="c" width="42" height="42" x="0" y="0" maskUnits="userSpaceOnUse" style="mask-type:alpha"><circle cx="21" cy="21" r="21" fill="url(#b)"/></mask><g mask="url(#c)"><circle cx="21" cy="21" r="21" fill="#34EDB3"/><circle cx="21" cy="21" r="18.2" fill="#fff"/></g><circle cx="21" cy="21" r="16.1" fill="#06061B"/><circle cx="21" cy="21" r="16.1" fill="#000"/><path fill="#B1060F" fill-rule="evenodd" stroke="#000" stroke-width=".082" d="m22.67 10.514-.008 4.64-.008 4.642-.382-1.078-.001-.002-.494 10.332c.486 1.37.745 2.101.748 2.104.004.004.28.02.615.037a47.74 47.74 0 0 1 3.218.276c.22.028.41.042.421.032.012-.01.018-4.736.014-10.501l-.007-10.482H22.67ZM15.225 10.5v10.493c0 5.77.006 10.498.013 10.505.007.007.364-.027.794-.075.43-.048 1.024-.108 1.32-.133a69.734 69.734 0 0 1 1.968-.127c.046 0 .049-.236.055-4.444l.008-4.444.328.929.116.328.493-10.33-.17-.478c-.402-1.14-.744-2.106-.76-2.148l-.027-.076h-4.138Z" clip-rule="evenodd"/><path fill="url(#d)" fill-rule="evenodd" d="M15.225 10.5v5.89l4.15 11.006v-.677l.008-4.444.328.929c1.827 5.17 2.809 7.942 2.815 7.948.003.004.28.02.614.037 1.012.05 2.266.158 3.218.276.22.028.41.042.421.032.008-.007.013-2.324.014-5.593l-4.13-11.873-.001 1.124-.008 4.64-.382-1.077a9865.782 9865.782 0 0 1-2.881-8.142l-.028-.076h-4.138Z" clip-rule="evenodd"/><path fill="#E50914" fill-rule="evenodd" d="m15.225 10.5 4.158 11.78v-.005l.328.929c1.827 5.17 2.809 7.942 2.814 7.948.004.004.28.02.615.037 1.012.05 2.266.158 3.218.276.219.028.407.042.42.032l-4.124-11.703v.002l-.382-1.078a11282.916 11282.916 0 0 1-2.881-8.142l-.028-.076h-4.138Z" clip-rule="evenodd"/><path fill="#B1060F" fill-rule="evenodd" stroke="#000" stroke-width=".082" d="m22.67 10.514-.008 4.64-.008 4.642-.382-1.078-.001-.002-.494 10.332c.486 1.37.745 2.101.748 2.104.004.004.28.02.615.037a47.74 47.74 0 0 1 3.218.276c.22.028.41.042.421.032.012-.01.018-4.736.014-10.501l-.007-10.482H22.67ZM15.225 10.5v10.493c0 5.77.006 10.498.013 10.505.007.007.364-.027.794-.075.43-.048 1.024-.108 1.32-.133a69.734 69.734 0 0 1 1.968-.127c.046 0 .049-.236.055-4.444l.008-4.444.328.929.116.328.493-10.33-.17-.478c-.402-1.14-.744-2.106-.76-2.148l-.027-.076h-4.138Z" clip-rule="evenodd"/><path fill="url(#e)" fill-rule="evenodd" d="M15.225 10.5v5.89l4.15 11.006v-.677l.008-4.444.328.929c1.827 5.17 2.809 7.942 2.815 7.948.003.004.28.02.614.037 1.012.05 2.266.158 3.218.276.22.028.41.042.421.032.008-.007.013-2.324.014-5.593l-4.13-11.873-.001 1.124-.008 4.64-.382-1.077a9865.782 9865.782 0 0 1-2.881-8.142l-.028-.076h-4.138Z" clip-rule="evenodd"/><path fill="#E50914" fill-rule="evenodd" d="m15.225 10.5 4.158 11.78v-.005l.328.929c1.827 5.17 2.809 7.942 2.814 7.948.004.004.28.02.615.037 1.012.05 2.266.158 3.218.276.219.028.407.042.42.032l-4.124-11.703v.002l-.382-1.078a11282.916 11282.916 0 0 1-2.881-8.142l-.028-.076h-4.138Z" clip-rule="evenodd"/></g><defs><radialGradient id="d" cx="0" cy="0" r="1" gradientTransform="matrix(2.4777 -.8579 31.42397 90.75624 20.817 20.878)" gradientUnits="userSpaceOnUse"><stop/><stop offset="1" stop-opacity="0"/></radialGradient><radialGradient id="e" cx="0" cy="0" r="1" gradientTransform="matrix(2.4777 -.8579 31.42397 90.75624 20.817 20.878)" gradientUnits="userSpaceOnUse"><stop/><stop offset="1" stop-opacity="0"/></radialGradient><linearGradient id="b" x1="21" x2="21" y1="0" y2="61.409" gradientUnits="userSpaceOnUse"><stop stop-color="#08021E"/><stop offset="1" stop-color="#1F0777"/></linearGradient><clipPath id="a"><path fill="#fff" d="M0 0h42v42H0z"/></clipPath></defs></svg>
